svg/factory_worker_negative.svg

<?xml version="1.0" encoding="UTF-8" standalone="no"?>
<!-- Created with Inkscape (http://www.inkscape.org/) -->
<svg id="svg8" xmlns:rdf="http://www.w3.org/1999/02/22-rdf-syntax-ns#" xmlns="http://www.w3.org/2000/svg" xmlns:osb="http://www.openswatchbook.org/uri/2009/osb" height="48" width="48" version="1.1" xmlns:cc="http://creativecommons.org/ns#" viewBox="0 0 12.7 12.7" xmlns:dc="http://purl.org/dc/elements/1.1/">
 <title id="title4753">UIO-icon</title>
 <metadata id="metadata5">
  <rdf:RDF>
   <cc:Work rdf:about="">
    <dc:format>image/svg+xml</dc:format>
    <dc:type rdf:resource="http://purl.org/dc/dcmitype/StillImage"/>
    <dc:title>UIO-icon</dc:title>
    <dc:creator>
     <cc:Agent>
      <dc:title>Joaquín Urbano</dc:title>
     </cc:Agent>
    </dc:creator>
    <dc:rights>
     <cc:Agent>
      <dc:title>GPL</dc:title>
     </cc:Agent>
    </dc:rights>
   </cc:Work>
  </rdf:RDF>
 </metadata>
 <g id="layer1" fill="#333" transform="translate(0,-284.3)">
  <path id="rect12202" d="m0 0v48h48v-48zm22.77 5.4785c0.16904-0.0052157 0.34969-0.0058694 0.58789 0.0078125 0.72904 0.0055559 1.5288-0.07541 2.084 0.14258 0.092167 0.43689-0.096536 1.093-0.17188 1.6602l-0.30273 1.6426c-0.00121 0.54477-0.033804 1.1022 0.53125 1.4043 0.63815 0.40954 1.1742 0.28361 1.5625-0.59766 0.28554-0.90272 0.56687-1.8052 0.68945-2.6875 0.61406 0.2993 1.386 0.82856 2.0176 1.4688 0.54972 0.68986 0.91164 0.80921 1.4355 2.1328 0.24859 0.55881 0.33484 1.0778 0.33398 1.5742-0.024027 0.2942 0.12039 0.52498 0.32422 0.73633 0.18635 0.19848 0.51208 0.19039 0.81836 0.20898 0.10429 0.012208 0.46375 0.059331 0.4043 0.62305-0.023853 0.13723-0.40765 0.24153-0.65039 0.30664-2.1707 0.51909-4.6981 0.66865-6.7051 0.72461l-2.6914 0.058594c-1.898 0.04074-3.7757 0.001519-5.6113-0.20703-0.39746-0.003631-0.7731-0.072565-1.1504-0.13672l-1.7988-0.38672c-0.19135-0.093608-0.41234-0.075003-0.54688-0.37695-0.03747-0.27867-0.035176-0.54307 0.54102-0.61719 0.28232 0.006841 0.55867-0.061648 0.82031-0.40625 0.17213-0.31344 0.20358-0.58067 0.18945-0.83203 0.14213-0.58027 0.26955-1.1809 0.51172-1.6211 0.32486-0.79027 0.75484-1.3706 1.2461-1.8281 0.66106-0.51853 1.3434-1.1444 1.9668-1.4746l0.58398 2.2969c0.42478 0.99858 0.52595 0.91729 0.71875 1.1426 0.50871 0.33289 0.89674 0.007408 1.2832-0.33203 0.12344-0.23942 0.29248-0.3102 0.23828-1.2207l-0.446-2.4119c-0.038-0.2207-0.075-0.3304-0.113-0.6622-0.041-0.2623 0.432-0.2777 0.777-0.3105 0.19467-0.0071055 0.35244-0.016269 0.52148-0.021484zm7.6504 9.5156c0.016446 1.627 0.035706 3.2539 0.046875 4.8809-2e-8 2.0737-0.79828 4.1215-2.3613 5.0996-1.7383 1.0876-3.3495 2.2264-4.6094 2.2227-1.8397-0.057335-2.8768-0.92259-4.9668-2.2383-1.476-0.93-1.992-3-1.992-5.084v-4.7871l0.51367 0.064453c3.5917 0.36911 9.2033 0.30966 12.855-0.097656zm-9.9277 0.94531c-0.43898 0.00011339-0.79482 0.35601-0.79492 0.79492 0.00009828 0.43895 0.35596 0.79481 0.79492 0.79492 0.43898-0.00011339 0.79482-0.35604 0.79492-0.79492-0.00009828-0.43899-0.35596-0.79481-0.79492-0.79492zm5.9688 0c-0.43898 0.00011339-0.79483 0.35601-0.79492 0.79492 0.0000945 0.43895 0.35592 0.79481 0.79492 0.79492 0.43898-0.00011339 0.79482-0.35604 0.79492-0.79492-0.00009828-0.43899-0.35596-0.79481-0.79492-0.79492zm-3.035 3.67c-0.37814 0.00378-0.67004 0.070579-0.66602 0.14844 0.001999 0.080882 0.32239 0.14686 0.7168 0.14648 0.39441 0.00003774 0.71477-0.065602 0.7168-0.14648 0.003201-0.082016-0.31865-0.14844-0.7168-0.14844-0.017008-0.00011339-0.034-0.00011339-0.050781 0zm2.9551 2.2617c-0.0000756 0.00041595-0.011341 0.001424-0.011719 0.001953 0.0001172 0.0003779 0.011719-0.00041575 0.011719 0zm-0.011719 0.001953c-0.015874-0.053669-1.2268 0.071172-2.7285 0.2832-0.064441 0.007559-0.12896 0.019785-0.19336 0.027344-1.4369 0.2075-2.5416 0.40995-2.5215 0.46094 0.026079 0.052158 1.2485-0.077409 2.7422-0.28906 1.4821-0.21014 2.6733-0.42369 2.7012-0.48242zm3.9434 5.5605c0.81693 0.28997 1.6098 0.61807 2.4043 0.95898l2.6523 1.1504c1.0649 0.46137 2.1621 0.92102 3.373 1.3418 2.5451 0.75129 2.5449 2.867 2.5449 4.0195v6.6621h-35.571v-6.6621c0-1.1525-0.00017116-3.27 2.5449-4.0195 1.0957-0.38071 2.0962-0.79443 3.0684-1.2109l2.6523-1.1484c0.855-0.371 1.707-0.73 2.582-1.046l0.10938-0.029297c1.8171 1.8074 4.275 2.8233 6.8379 2.8262 2.085-0.032267 5.2375-1.3736 6.8027-2.8437zm0.10742 0.58594c-2.0088 1.4734-3.9247 2.6468-6.834 2.7734-3.7336 0.16251-6.3939-2.1941-7.0469-2.7539-0.014807-0.012695 0.002363-0.005224-0.29688 0.10938 0 0-1.6805 0.63456-1.7363 0.71484h-0.001953c-0.0008263 0.001243-0.027346 0.010758-0.027344 0.011719l0.009766 4.9863h17.715l-0.001953-5.1309s-0.067863-0.028212-0.31641-0.12891c-0.56233-0.22782-1.4629-0.58203-1.4629-0.58203zm5.459 2.3047 0.001953 10.729h4.8906l-0.003906-6.6602c0.077238-1.9444-0.97223-2.6244-2.2559-3.043zm-25.064 0.126-2.3745 0.904c-1.8617 0.6-2.0053 1.681-2.2051 2.747v0.32l-0.0078 6.631h4.5854v-3.873z" fill-rule="evenodd" transform="matrix(.26458 0 0 .26458 0 284.3)"/>
  <g id="layer1-1" transform="translate(5.6552 10.611)"></g>
 </g>
</svg>

<svg width="48" height="48" viewBox="0 0 48 48" fill="none" xmlns="http://www.w3.org/2000/svg">
<path fill-rule="evenodd" clip-rule="evenodd" d="M0 0V47.9994H47.9994V0H0ZM22.7697 5.47843C22.9388 5.47322 23.1194 5.47256 23.3576 5.48624C24.0866 5.4918 24.8864 5.41083 25.4416 5.62882C25.5337 6.06571 25.345 6.72181 25.2697 7.289L24.967 8.93158C24.9658 9.47634 24.9332 10.0338 25.4982 10.3359C26.1364 10.7454 26.6724 10.6195 27.0607 9.73821C27.3462 8.8355 27.6276 7.93303 27.7501 7.05074C28.3642 7.35004 29.1361 7.87929 29.7677 8.51953C30.3174 9.20938 30.6793 9.32873 31.2032 10.6523C31.4518 11.2111 31.538 11.7301 31.5372 12.2265C31.5131 12.5207 31.6576 12.7515 31.8614 12.9628C32.0477 13.1613 32.3735 13.1532 32.6797 13.1718C32.784 13.184 33.1435 13.2311 33.084 13.7948C33.0602 13.932 32.6764 14.0363 32.4336 14.1015C30.263 14.6205 27.7356 14.7701 25.7286 14.8261L23.0373 14.8846C21.1393 14.9254 19.2616 14.8862 17.426 14.6776C17.0286 14.674 16.6529 14.6051 16.2756 14.5409L14.4769 14.1542C14.2855 14.0606 14.0645 14.0792 13.93 13.7772C13.8925 13.4986 13.8948 13.2342 14.471 13.1601C14.7533 13.1669 15.0297 13.0984 15.2913 12.7538C15.4634 12.4404 15.4949 12.1732 15.4808 11.9218C15.6229 11.3415 15.7503 10.7409 15.9925 10.3007C16.3173 9.51046 16.7473 8.93013 17.2386 8.47264C17.8996 7.95412 18.5819 7.32825 19.2053 6.99806L19.7893 9.29493C20.2141 10.2935 20.3152 10.2122 20.508 10.4375C21.0167 10.7704 21.4048 10.4449 21.7912 10.1055C21.9147 9.86607 22.0837 9.79529 22.0295 8.88481L21.5835 6.47294C21.5455 6.25224 21.5085 6.14254 21.4705 5.81074C21.4295 5.54845 21.9025 5.53305 22.2475 5.50025C22.4422 5.49314 22.5999 5.48398 22.769 5.47876L22.7697 5.47843ZM30.42 14.9939C30.4365 16.6209 30.4557 18.2478 30.4669 19.8748C30.4669 21.9484 29.6686 23.9962 28.1056 24.9743C26.3673 26.0619 24.7562 27.2007 23.4963 27.197C21.6566 27.1396 20.6195 26.2744 18.5295 24.9587C17.0536 24.0287 16.5376 21.9587 16.5376 19.8748V15.0877L17.0512 15.1522C20.6429 15.5213 26.2544 15.4618 29.9061 15.0545L30.42 14.9939ZM20.4924 15.9392C20.0535 15.9393 19.6976 16.2952 19.6975 16.7341C19.6976 17.1731 20.0535 17.5289 20.4924 17.529C20.9314 17.5289 21.2873 17.173 21.2874 16.7341C21.2873 16.2951 20.9314 15.9393 20.4924 15.9392ZM26.4612 15.9392C26.0222 15.9393 25.6663 16.2952 25.6663 16.7341C25.6664 17.1731 26.0222 17.5289 26.4612 17.529C26.9001 17.5289 27.256 17.173 27.2561 16.7341C27.256 16.2951 26.9001 15.9393 26.4612 15.9392ZM23.4262 19.6092C23.0481 19.6129 22.7562 19.6797 22.7602 19.7576C22.7622 19.8385 23.0826 19.9045 23.477 19.9041C23.8714 19.9041 24.1917 19.8385 24.1938 19.7576C24.197 19.6756 23.8751 19.6092 23.477 19.6092C23.46 19.6091 23.443 19.6091 23.4262 19.6092ZM26.3813 21.8708C26.3812 21.8713 26.3699 21.8723 26.3696 21.8728C26.3697 21.8732 26.3813 21.8724 26.3813 21.8728V21.8708ZM26.3696 21.8728C26.3537 21.8191 25.1428 21.944 23.6411 22.156C23.5766 22.1635 23.5121 22.1758 23.4477 22.1833C22.0108 22.3908 20.9062 22.5933 20.9263 22.6443C20.9523 22.6964 22.1747 22.5669 23.6684 22.3552C25.1505 22.1451 26.3417 21.9315 26.3696 21.8728ZM30.3129 27.4332C31.1298 27.7232 31.9227 28.0513 32.7172 28.3922L35.3694 29.5426C36.4343 30.0039 37.5315 30.4636 38.7424 30.8844C41.2875 31.6356 41.2873 33.7513 41.2873 34.9038V41.5658H5.71671V34.9038C5.71671 33.7513 5.71654 31.6338 8.26158 30.8844C9.35726 30.5036 10.3578 30.0899 11.3299 29.6735L13.9822 28.5251C14.8372 28.1541 15.6892 27.7951 16.5642 27.4791L16.6736 27.4498C18.4906 29.2572 20.9485 30.2731 23.5114 30.276C25.5963 30.2437 28.7488 28.9024 30.314 27.4323L30.3129 27.4332ZM30.4203 28.0192C28.4115 29.4925 26.4957 30.6659 23.5864 30.7925C19.8529 30.955 17.1926 28.5984 16.5396 28.0387C16.5248 28.026 16.542 28.0334 16.2427 28.148C16.2427 28.148 14.5622 28.7826 14.5064 28.8629H14.5045C14.5037 28.8641 14.4771 28.8736 14.4771 28.8746L14.4869 33.8608H32.2017L32.1997 28.73C32.1997 28.73 32.1319 28.7018 31.8833 28.6011C31.321 28.3733 30.4204 28.019 30.4204 28.019L30.4203 28.0192ZM35.8793 30.3238L35.8812 41.0527H40.7717L40.7678 34.3926C40.8451 32.4482 39.7956 31.7682 38.512 31.3496L35.8793 30.3238ZM10.8156 30.4498L8.4411 31.3538C6.57942 31.9538 6.43582 33.0348 6.23602 34.1008V34.4208L6.22822 41.0517H10.8136V37.1787L10.8156 30.4498Z" fill="#333333"/>
</svg>
